X:11
T:Foxhunter's
M:9/8
L:1/8
R:slipjig
K:D
FGF F2D G2E | FGF F2D E2D | FGF F2D G2B | AFD DEF E2D ::
B=cB BAG FGA | B2E E2F G2B | ABc dcB ABc | d2D DEF E2D ::
fgf f2d g2e | fgf f2d e2d | fgf f2d g2b | afd def e2d ::
gfe d=cB AGA | B2E E2F G2B | ABc dcB ABc | d2D DEF E2D :|
